X: 1
T: Larid\'e \`a 8 temps
O: trad. Breton par Orlulas
Z: 2019 John Chambers <jc:trillian.mit.edu>
S: NEFFA 2019 French Jam handout p.14 #3
M: 6/8
L: 1/8
K: Am
c2B |\
"Am"A2B c2d | e3 c2d | e2e d2c | "G"B2d c2B |\
"Am"A2B c2d |1 e3 c2d | e2e d2c | "G"B3 :|2 e4 ze- | e2e d2c | "G"B3 B2 ||
|: e |\
"G(Am)"e2d e2c | "Am"A3  ABc | "G"B2A G2 A | "Em"B3 B2e |\
e2d e2c | "F"A3 ABc | "G"d2c B2c |1 "Am"A2E A2 :|2 "Am"A3 |]
